images/icon/twitter-icon.svg

<svg height="100" viewBox="0 0 100 100" width="100" xmlns="http://www.w3.org/2000/svg"><path d="m50 4c-25.367188 0-46 20.632812-46 46s20.632812 46 46 46 46-20.632812 46-46-20.632812-46-46-46zm22.472656 37.046875c.019532.472656.035156.953125.035156 1.433594 0 14.636719-11.148437 31.519531-31.527343 31.519531-6.253907 0-12.082031-1.835938-16.980469-4.976562.867188.101562 1.742188.152343 2.640625.152343 5.195313 0 9.972656-1.769531 13.757813-4.738281-4.847657-.089844-8.933594-3.300781-10.347657-7.695312.675781.128906 1.371094.199218 2.085938.199218 1.011719 0 1.992187-.132812 2.917969-.390625-5.066407-1.019531-8.882813-5.492187-8.882813-10.863281 0-.046875 0-.09375 0-.140625 1.492187.832031 3.199219 1.332031 5.019531 1.390625-2.976562-1.992188-4.929687-5.378906-4.929687-9.222656 0-2.03125.542969-3.933594 1.5-5.574219 5.464843 6.703125 13.628906 11.113281 22.835937 11.578125-.191406-.8125-.292968-1.65625-.292968-2.523438 0-6.121093 4.960937-11.078124 11.082031-11.078124 3.183593 0 6.0625 1.34375 8.082031 3.496093 2.523438-.496093 4.898438-1.417969 7.039062-2.683593-.828124 2.582031-2.585937 4.753906-4.875 6.125 2.242188-.269532 4.375-.863282 6.363282-1.746094-1.480469 2.222656-3.359375 4.175781-5.523438 5.738281zm0 0" fill="#fff"/></svg>

<?xml version="1.0" encoding="UTF-8"?>
<svg xmlns="http://www.w3.org/2000/svg" xmlns:xlink="http://www.w3.org/1999/xlink" viewBox="0 0 100 100" width="100px" height="100px">
<g id="surface125303235">
<path style=" stroke:none;fill-rule:nonzero;fill:rgb(100%,100%,100%);fill-opacity:1;" d="M 50 4 C 24.632812 4 4 24.632812 4 50 C 4 75.367188 24.632812 96 50 96 C 75.367188 96 96 75.367188 96 50 C 96 24.632812 75.367188 4 50 4 Z M 72.472656 41.046875 C 72.492188 41.519531 72.507812 42 72.507812 42.480469 C 72.507812 57.117188 61.359375 74 40.980469 74 C 34.726562 74 28.898438 72.164062 24 69.023438 C 24.867188 69.125 25.742188 69.175781 26.640625 69.175781 C 31.835938 69.175781 36.613281 67.40625 40.398438 64.4375 C 35.550781 64.347656 31.464844 61.136719 30.050781 56.742188 C 30.726562 56.871094 31.421875 56.941406 32.136719 56.941406 C 33.148438 56.941406 34.128906 56.808594 35.054688 56.550781 C 29.988281 55.53125 26.171875 51.058594 26.171875 45.6875 C 26.171875 45.640625 26.171875 45.59375 26.171875 45.546875 C 27.664062 46.378906 29.371094 46.878906 31.191406 46.9375 C 28.214844 44.945312 26.261719 41.558594 26.261719 37.714844 C 26.261719 35.683594 26.804688 33.78125 27.761719 32.140625 C 33.226562 38.84375 41.390625 43.253906 50.597656 43.71875 C 50.40625 42.90625 50.304688 42.0625 50.304688 41.195312 C 50.304688 35.074219 55.265625 30.117188 61.386719 30.117188 C 64.570312 30.117188 67.449219 31.460938 69.46875 33.613281 C 71.992188 33.117188 74.367188 32.195312 76.507812 30.929688 C 75.679688 33.511719 73.921875 35.683594 71.632812 37.054688 C 73.875 36.785156 76.007812 36.191406 77.996094 35.308594 C 76.515625 37.53125 74.636719 39.484375 72.472656 41.046875 Z M 72.472656 41.046875 "/>
</g>
</svg>
